assets/Woman golfing/Default/Flat/woman_golfing_flat_default.svg

<svg width="32" height="32" viewBox="0 0 32 32" fill="none" xmlns="http://www.w3.org/2000/svg">
<path d="M13.39 2.75995C13.32 2.79995 13.24 2.80995 13.17 2.76995C12.78 2.58995 12.32 2.58995 11.91 2.81995C11.51 3.04995 11.26 3.43995 11.22 3.86995C11.21 3.93995 11.17 4.00995 11.1 4.04995C10.44 4.41995 10.66 4.77995 11.03 5.44995C11.03 5.44995 11.03 6.05995 11.03 6.06995C11.16 6.29995 10.94 6.51995 10.87 6.77995C10.82 6.93995 10.78 7.20995 10.92 7.44995C11.02 7.63995 11.17 7.78995 11.33 7.89995C11.38 7.93995 11.42 7.99995 11.42 8.06995C11.43 8.26995 11.49 8.46995 11.59 8.64995C11.95 9.29995 12.77 9.52995 13.42 9.16995C13.42 9.16995 13.9 8.89995 13.99 8.84995C14.19 8.73995 14.29 8.63995 14.19 8.47995C14.11 8.32995 13.88 7.88995 13.88 7.88995L15.34 7.08995L15.67 7.65995C15.67 7.65995 15.78 7.84995 16.02 7.71995C16.15 7.64995 16.55 7.41995 16.55 7.41995C17.2 7.05995 17.43 6.23995 17.06 5.58995C16.96 5.40995 16.82 5.25995 16.65 5.13995C16.6 5.09995 16.56 5.03995 16.56 4.96995C16.55 4.76995 16.49 4.56995 16.39 4.37995C16.25 4.12995 16.03 3.97995 15.77 3.94995C15.58 3.92995 15.41 3.91995 15.05 3.72995L13.39 2.75995ZM14.87 8.09995C13.91 8.63995 12.74 8.38995 12.13 7.39995L11.5 6.37995L11.44 6.26995C11.25 5.91995 11.37 5.66995 11.44 5.57995C11.45 5.56995 11.46 5.55995 11.47 5.53995C11.61 5.34995 11.68 5.09995 11.65 4.84995L11.63 4.77995C11.62 4.68995 11.71 4.62995 11.79 4.65995C12.26 4.89995 12.82 4.87995 13.28 4.61995L14.44 3.96995C14.51 3.92995 14.86 3.77995 15.14 4.25995L15.7 5.38995C16.23 6.42995 15.83 7.55995 14.87 8.09995Z" fill="#F1A11E"/>
<path d="M18.2281 10.9289C17.8481 10.9289 17.4881 10.7089 17.3181 10.3389C17.0981 9.83894 17.3281 9.24894 17.8281 9.02894C19.0881 8.46894 19.8981 7.65894 20.2181 6.61894C20.4681 5.81894 20.3381 5.15894 20.3381 5.14894V5.15894L22.2281 4.40894C22.2481 4.51894 22.4981 5.83894 22.1481 7.07894C21.8181 8.22894 20.9481 9.80894 18.6281 10.8389C18.4881 10.9089 18.3581 10.9289 18.2281 10.9289Z" fill="#D67D00"/>
<path d="M20 4.66235L7.38824 12.0989L6.77824 12.4489C6.13824 12.8189 5.84824 13.5989 6.07824 14.2989L6.60824 15.8989C6.80824 16.4789 7.48824 16.7389 8.01824 16.4289C8.41824 16.1989 8.59824 15.7189 8.44824 15.2789L7.84824 13.4789C7.76824 13.2289 7.86824 12.9589 8.08824 12.8289L20 5.80531V4.66235Z" fill="#9B9B9B"/>
<path d="M25.1383 2.24889C24.9983 2.00889 24.6983 1.92889 24.4583 2.06889L20.0083 4.64889L20.4283 5.54889L24.9583 2.91889C25.1883 2.78889 25.2683 2.47889 25.1383 2.24889Z" fill="#321B41"/>
<path d="M19.6882 15.5689L16.7182 16.5689L13.7482 15.5689V12.7489C13.7482 12.3689 13.6382 11.9989 13.4282 11.6689C12.5382 10.2889 12.9382 8.44892 14.3182 7.55892C15.6982 6.66892 17.6282 8.24892 18.5182 9.62892C19.6882 11.4289 19.6882 15.5689 19.6882 15.5689Z" fill="#8B62BF"/>
<path d="M22.0082 4.17897C21.9722 4.17897 21.9372 4.1736 21.9047 4.16287C21.8949 4.25683 21.8431 4.34444 21.7583 4.399C21.6983 4.429 21.6483 4.439 21.5983 4.439C21.5541 4.439 21.5115 4.43092 21.4731 4.41477C21.4633 4.48344 21.4309 4.54807 21.3797 4.59802C21.437 4.63004 21.4859 4.6781 21.5182 4.739C21.6082 4.909 21.5482 5.129 21.3782 5.219L20.9382 5.459C20.8782 5.479 20.8182 5.499 20.7682 5.499C20.6482 5.499 20.5182 5.429 20.4582 5.319C20.3756 5.16309 20.4192 4.96512 20.5582 4.86395C20.5254 4.84007 20.4979 4.80841 20.4782 4.76898L20.2682 4.39898C20.1882 4.24898 20.2382 4.06898 20.3782 3.97898C20.4708 3.92956 20.5749 3.92975 20.6622 3.97011C20.6733 3.87805 20.7247 3.79257 20.8081 3.73899C20.9008 3.68953 21.005 3.68976 21.0923 3.73022C21.1034 3.63812 21.1549 3.5526 21.2383 3.499C21.3506 3.4391 21.4797 3.45207 21.5752 3.52112C21.5974 3.4523 21.643 3.39088 21.7082 3.34897C21.8582 3.26897 22.0382 3.31897 22.1282 3.45897L22.2782 3.71897C22.3582 3.86897 22.3082 4.04897 22.1682 4.13897L22.1426 4.14766C22.0936 4.16438 22.0509 4.17897 22.0082 4.17897Z" fill="#D67D00"/>
<path d="M19.6882 15.5689L16.7182 16.5689L13.7482 15.5689V12.7489C13.7482 12.3689 13.6382 11.9989 13.4282 11.6689C12.5382 10.2889 12.9382 8.44892 14.3182 7.55892C15.6982 6.66892 17.6282 8.24892 18.5182 9.62892C19.6882 11.4289 19.6882 15.5689 19.6882 15.5689Z" fill="#8B62BF"/>
<path d="M13.7483 15.5688V22.6488C13.7483 23.2288 13.7083 23.3288 13.6383 23.4088L10.5583 26.6888C10.5983 26.7288 12.1383 27.8788 12.2783 28.0188L15.5883 25.1188C15.8783 24.8188 16.2883 24.3988 16.3183 23.7488L16.4683 18.4888C16.4683 17.9688 16.8383 17.8688 16.9883 18.1888C17.0883 18.3988 17.3164 28.5351 17.3164 28.5351L19.4083 29.0688L19.6784 15.5788H13.7483V15.5688Z" fill="#9B9B9B"/>
<path d="M12.2683 29.049L12.2783 28.019L10.5583 26.699C10.3283 26.959 10.2083 27.299 10.2083 27.639V29.509C10.2083 29.819 10.4583 30.079 10.7783 30.079H12.7383C12.9183 30.079 13.0683 29.929 13.0683 29.749C13.0683 29.629 13.0083 29.529 12.9183 29.469L12.2683 29.049Z" fill="#321B41"/>
<path d="M17.3184 28.519H19.4484L21.3384 29.559C21.4184 29.609 21.4684 29.699 21.4684 29.799C21.4684 29.949 21.3484 30.079 21.1884 30.079L17.3984 30.069L17.3184 28.519Z" fill="#321B41"/>
<path d="M20.7781 5.56891C20.7381 5.13891 20.5081 4.71891 20.4681 4.64891C20.5681 4.58891 20.5981 4.45891 20.5381 4.35891C20.4981 4.29891 20.4681 4.23891 20.4681 4.23891C20.3781 4.07891 20.1781 4.02891 20.0181 4.11891C19.9381 4.15891 19.8881 4.22891 19.8681 4.30891C19.7681 4.22891 19.6181 4.21891 19.4981 4.28891C19.4081 4.33891 19.3481 4.43891 19.3381 4.52891C19.2481 4.48891 19.1281 4.48891 19.0381 4.54891C18.9481 4.59891 18.8881 4.69891 18.8781 4.78891C18.7781 4.74891 18.6581 4.74891 18.5581 4.81891C18.4181 4.91891 18.3881 5.11891 18.4681 5.26891L18.5481 5.40891C18.6381 5.55891 18.7881 5.78891 18.7581 6.09891C18.7181 6.34891 18.6281 6.67891 18.4081 7.03891C17.8381 7.95891 16.6481 8.56891 14.9681 8.79891C14.4381 8.88891 14.0681 9.38891 14.1381 9.92891C14.2081 10.4289 14.6281 10.7789 15.1181 10.7789C15.1681 10.7789 15.2081 10.7789 15.2581 10.7689C18.2381 10.3489 19.5881 9.00891 20.1881 7.94891C20.8781 6.76891 20.7881 5.68891 20.7781 5.56891Z" fill="#FFC83D"/>
<path d="M16.0283 8.58887C15.4583 8.71887 14.8383 8.83887 14.1183 8.88887C13.5783 8.92887 13.1583 9.43887 13.1883 10.0389C13.2183 10.5789 13.6083 10.9989 14.0983 11.0389C14.1483 11.0389 14.1883 11.0389 14.2383 11.0389C15.1283 10.9689 15.8883 10.8089 16.5283 10.5789C16.3383 9.83887 16.1483 9.07887 16.0283 8.58887Z" fill="#B8A1E6"/>
<path d="M14.2053 4.21814L15.0713 3.71814L15.5808 4.60056L15.7083 4.56885L16.2883 5.59885C16.4883 5.92885 16.4383 6.35885 16.1883 6.64885L15.6383 7.27885L14.2783 4.91885C14.3754 4.89458 14.4721 4.87072 14.5685 4.84711L14.2053 4.21814Z" fill="#F1A11E"/>
<path d="M11.0256 6.05579L11.8916 5.55579L12.2633 6.19958C12.3327 6.12624 12.401 6.05256 12.4682 5.97888L13.8182 8.32888L12.9982 8.48888C12.6182 8.55888 12.2282 8.37888 12.0282 8.04888L11.4382 7.01888C11.4698 6.98976 11.5007 6.96064 11.5313 6.93152L11.0256 6.05579Z" fill="#F1A11E"/>
<path d="M16.1583 4.95879C16.1583 5.34539 15.8449 5.65879 15.4583 5.65879C15.0717 5.65879 14.7583 5.34539 14.7583 4.95879C14.7583 4.57219 15.0717 4.25879 15.4583 4.25879C15.8449 4.25879 16.1583 4.57219 16.1583 4.95879Z" fill="#FDBB11"/>
<path d="M12.6083 7.00878C12.6083 7.39538 12.2949 7.70878 11.9083 7.70878C11.5217 7.70878 11.2083 7.39538 11.2083 7.00878C11.2083 6.62218 11.5217 6.30878 11.9083 6.30878C12.2949 6.30878 12.6083 6.62218 12.6083 7.00878Z" fill="#FDBB11"/>
<path d="M11.9999 4.05995C11.2199 4.48995 10.9499 5.47995 11.4099 6.21995L12.1299 7.38995C12.7499 8.38995 13.9199 8.62995 14.8699 8.08995C15.8299 7.54995 16.2299 6.42995 15.6999 5.37995L15.0799 4.15995C14.6899 3.37995 13.7099 3.09995 12.9299 3.52995L11.9999 4.05995Z" fill="#FFC83D"/>
<path d="M13.9383 2.40893C13.3783 2.20893 12.7883 2.33893 12.2683 2.63893L11.8883 2.86893L11.5083 3.08893C10.9883 3.38893 10.5783 3.83893 10.4683 4.41893C10.3883 4.86893 10.5683 5.49893 11.0283 6.05893L11.0483 6.03893C11.0583 6.01893 11.0583 5.99893 11.0683 5.98893C11.3083 5.52893 11.6683 5.11893 12.0683 4.78893C12.2783 4.61893 12.4983 4.45893 12.7283 4.31893C12.9583 4.19893 13.1983 4.08893 13.4483 3.98893C13.9383 3.80893 14.4683 3.69893 14.9883 3.72893C15.0083 3.72893 15.0283 3.72893 15.0483 3.73893L15.0783 3.72893C14.8283 3.03893 14.3683 2.56893 13.9383 2.40893Z" fill="#8B62BF"/>
<path d="M11.4383 5.18878C11.2583 5.44878 11.1283 5.72878 11.0283 6.05878L11.2883 6.15878C11.4783 6.22878 11.6983 6.15878 11.8083 5.97878C11.9983 5.66878 12.3683 5.17878 13.0183 4.79878C13.6683 4.41878 14.2783 4.34878 14.6383 4.33878C14.8483 4.33878 15.0183 4.17878 15.0483 3.97878L15.0883 3.70878C14.7383 3.63878 14.4283 3.60878 14.1183 3.63878C13.0383 3.73878 12.0583 4.29878 11.4383 5.18878Z" fill="#B8A1E6"/>
<path d="M14.3384 7.10888C14.1384 7.21888 13.9284 7.27888 13.7284 7.28888C13.6584 7.28888 13.6384 7.38888 13.6984 7.41888C13.9384 7.53888 14.2484 7.53888 14.4984 7.38888C14.7584 7.23888 14.9084 6.97888 14.9184 6.69888C14.9184 6.62888 14.8284 6.59888 14.7984 6.65888C14.6884 6.83888 14.5284 6.98888 14.3384 7.10888Z" fill="#990839"/>
<path d="M13.5184 5.94886L13.6884 6.67886C13.7184 6.82886 13.8884 6.89886 14.0284 6.82886L14.2984 6.65886C14.4384 6.57886 14.4584 6.39886 14.3384 6.29886L13.7884 5.78886C13.6684 5.66886 13.4784 5.78886 13.5184 5.94886Z" fill="#ED9200"/>
<path d="M15.0084 5.06886C14.8184 4.87886 14.5184 4.82886 14.2784 4.96886C14.0284 5.10886 13.9284 5.40886 14.0184 5.67886C14.0384 5.73886 14.1084 5.75886 14.1584 5.72886L14.9784 5.24886C15.0484 5.21886 15.0584 5.11886 15.0084 5.06886Z" fill="white"/>
<path d="M12.2383 6.66885C12.1583 6.41885 12.2683 6.12885 12.5083 5.98885C12.7583 5.84885 13.0783 5.89885 13.2683 6.10885C13.3083 6.15885 13.2883 6.22885 13.2383 6.25885L12.4083 6.73885C12.3483 6.77885 12.2583 6.73885 12.2383 6.66885Z" fill="white"/>
<path d="M14.7883 5.24889C14.6783 5.06889 14.4483 4.99889 14.2683 5.10889C14.0783 5.21889 14.0183 5.44889 14.1283 5.62889C14.1383 5.65889 14.1583 5.68889 14.1883 5.70889L14.8283 5.33889C14.8183 5.30889 14.8083 5.27889 14.7883 5.24889Z" fill="#7D4533"/>
<path d="M12.4984 6.56884C12.3984 6.38884 12.4584 6.14884 12.6384 6.04884C12.8284 5.93884 13.0584 5.99884 13.1684 6.18884C13.1734 6.20384 13.1809 6.21884 13.1884 6.23384C13.1959 6.24884 13.2034 6.26384 13.2084 6.27884L12.5684 6.64884C12.5384 6.62884 12.5184 6.59884 12.4984 6.56884Z" fill="#7D4533"/>
<path d="M14.3484 5.24889C14.2484 5.30889 14.2084 5.44889 14.2684 5.54889C14.2884 5.57889 14.3084 5.60889 14.3384 5.62889L14.6784 5.42889C14.6784 5.39889 14.6684 5.35889 14.6484 5.32889C14.5884 5.22889 14.4484 5.18889 14.3484 5.24889Z" fill="black"/>
<path d="M12.7283 6.1889C12.8383 6.1289 12.9683 6.1689 13.0283 6.2689C13.0383 6.2989 13.0483 6.3289 13.0483 6.3789L12.7183 6.5689C12.6883 6.5489 12.6683 6.5189 12.6483 6.4889C12.5883 6.3789 12.6283 6.2489 12.7283 6.1889Z" fill="black"/>
<path d="M14.3483 5.36883C14.3483 5.40749 14.3169 5.43883 14.2783 5.43883C14.2396 5.43883 14.2083 5.40749 14.2083 5.36883C14.2083 5.33017 14.2396 5.29883 14.2783 5.29883C14.3169 5.29883 14.3483 5.33017 14.3483 5.36883Z" fill="white"/>
<path d="M12.7184 6.30883C12.7184 6.34749 12.687 6.37883 12.6484 6.37883C12.6097 6.37883 12.5784 6.34749 12.5784 6.30883C12.5784 6.27017 12.6097 6.23883 12.6484 6.23883C12.687 6.23883 12.7184 6.27017 12.7184 6.30883Z" fill="white"/>
<path d="M14.5736 4.43741C14.6351 4.44595 14.6782 4.50276 14.6696 4.56427C14.6611 4.62576 14.6043 4.66869 14.5429 4.6602L14.5417 4.66006L14.5329 4.65924C14.5247 4.65856 14.5118 4.65776 14.4949 4.65749C14.461 4.65695 14.4117 4.65856 14.3525 4.66749C14.2341 4.68537 14.0782 4.7322 13.9265 4.84813C13.8772 4.88585 13.8066 4.87644 13.7689 4.82711C13.7312 4.77778 13.7406 4.7072 13.7899 4.66948C13.9783 4.52541 14.1724 4.46724 14.319 4.44511C14.3923 4.43405 14.4542 4.43191 14.4985 4.43262C14.5207 4.43297 14.5385 4.43404 14.5513 4.43509L14.5666 4.43655L14.5712 4.43709L14.5736 4.43741ZM12.6554 5.48462C12.6742 5.54379 12.6416 5.60705 12.5824 5.62593C12.3502 5.70002 12.1883 5.84501 12.1259 6.05137C12.1079 6.11081 12.0451 6.14442 11.9857 6.12643C11.9262 6.10845 11.8926 6.04568 11.9106 5.98623C11.999 5.69398 12.2278 5.50303 12.5141 5.41167C12.5732 5.3928 12.6365 5.42545 12.6554 5.48462Z" fill="#D37034"/>
</svg>

<svg xmlns="http://www.w3.org/2000/svg" width="32" height="32" fill="none"><path fill="#F1A11E" d="M13.39 2.76c-.07.04-.15.05-.22.01-.39-.18-.85-.18-1.26.05-.4.23-.65.62-.69 1.05-.01.07-.05.14-.12.18-.66.37-.44.73-.07 1.4v.62c.13.23-.09.45-.16.71-.05.16-.09.43.05.67.1.19.25.34.41.45.05.04.09.1.09.17a1.345 1.345 0 0 0 2 1.1l.57-.32c.2-.11.3-.21.2-.37-.08-.15-.31-.59-.31-.59l1.46-.8.33.57s.11.19.35.06c.13-.07.53-.3.53-.3.65-.36.88-1.18.51-1.83-.1-.18-.24-.33-.41-.45a.223.223 0 0 1-.09-.17c-.01-.2-.07-.4-.17-.59a.808.808 0 0 0-.62-.43c-.19-.02-.36-.03-.72-.22l-1.66-.97Zm1.48 5.34c-.96.54-2.13.29-2.74-.7l-.63-1.02-.06-.11c-.19-.35-.07-.6 0-.69a.977.977 0 0 0 .21-.73l-.02-.07c-.01-.09.08-.15.16-.12.47.24 1.03.22 1.49-.04l1.16-.65c.07-.04.42-.19.7.29l.56 1.13c.53 1.04.13 2.17-.83 2.71Z"/><path fill="#D67D00" d="M18.228 10.929c-.38 0-.74-.22-.91-.59-.22-.5.01-1.09.51-1.31 1.26-.56 2.07-1.37 2.39-2.41.25-.8.12-1.46.12-1.47v.01l1.89-.75c.02.11.27 1.43-.08 2.67-.33 1.15-1.2 2.73-3.52 3.76-.14.07-.27.09-.4.09Z"/><path fill="#9B9B9B" d="M20 4.662 7.388 12.1l-.61.35c-.64.37-.93 1.15-.7 1.85l.53 1.6c.2.58.88.84 1.41.53.4-.23.58-.71.43-1.15l-.6-1.8c-.08-.25.02-.52.24-.65L20 5.805V4.662Z"/><path fill="#321B41" d="M25.138 2.249a.493.493 0 0 0-.68-.18l-4.45 2.58.42.9 4.53-2.63a.5.5 0 0 0 .18-.67Z"/><path fill="#8B62BF" d="m19.688 15.569-2.97 1-2.97-1v-2.82c0-.38-.11-.75-.32-1.08-.89-1.38-.49-3.22.89-4.11 1.38-.89 3.31.69 4.2 2.07 1.17 1.8 1.17 5.94 1.17 5.94Z"/><path fill="#D67D00" d="M22.008 4.179a.33.33 0 0 1-.103-.016.32.32 0 0 1-.147.236.343.343 0 0 1-.285.016.32.32 0 0 1-.093.183.357.357 0 0 1-.002.621l-.44.24c-.06.02-.12.04-.17.04-.12 0-.25-.07-.31-.18a.36.36 0 0 1 .1-.455.26.26 0 0 1-.08-.095l-.21-.37a.318.318 0 0 1 .11-.42.317.317 0 0 1 .284-.009.32.32 0 0 1 .146-.231.317.317 0 0 1 .284-.009.32.32 0 0 1 .146-.231.317.317 0 0 1 .337.022.322.322 0 0 1 .133-.172c.15-.08.33-.03.42.11l.15.26c.08.15.03.33-.11.42l-.025.009c-.05.016-.092.031-.135.031Z"/><path fill="#8B62BF" d="m19.688 15.569-2.97 1-2.97-1v-2.82c0-.38-.11-.75-.32-1.08-.89-1.38-.49-3.22.89-4.11 1.38-.89 3.31.69 4.2 2.07 1.17 1.8 1.17 5.94 1.17 5.94Z"/><path fill="#9B9B9B" d="M13.748 15.569v7.08c0 .58-.04.68-.11.76l-3.08 3.28c.04.04 1.58 1.19 1.72 1.33l3.31-2.9c.29-.3.7-.72.73-1.37l.15-5.26c0-.52.37-.62.52-.3.1.21.328 10.346.328 10.346l2.092.534.27-13.49h-5.93v-.01Z"/><path fill="#321B41" d="m12.268 29.049.01-1.03-1.72-1.32c-.23.26-.35.6-.35.94v1.87c0 .31.25.57.57.57h1.96a.333.333 0 0 0 .18-.61l-.65-.42ZM17.318 28.519h2.13l1.89 1.04c.08.05.13.14.13.24 0 .15-.12.28-.28.28l-3.79-.01-.08-1.55Z"/><path fill="#FFC83D" d="M20.778 5.569c-.04-.43-.27-.85-.31-.92.1-.06.13-.19.07-.29-.04-.06-.07-.12-.07-.12a.327.327 0 0 0-.45-.12c-.08.04-.13.11-.15.19a.332.332 0 0 0-.37-.02c-.09.05-.15.15-.16.24a.32.32 0 0 0-.3.02c-.09.05-.15.15-.16.24a.335.335 0 0 0-.32.03c-.14.1-.17.3-.09.45l.08.14c.09.15.24.38.21.69-.04.25-.13.58-.35.94-.57.92-1.76 1.53-3.44 1.76-.53.09-.9.59-.83 1.13.07.5.49.85.98.85.05 0 .09 0 .14-.01 2.98-.42 4.33-1.76 4.93-2.82.69-1.18.6-2.26.59-2.38Z"/><path fill="#B8A1E6" d="M16.028 8.589c-.57.13-1.19.25-1.91.3-.54.04-.96.55-.93 1.15.03.54.42.96.91 1h.14c.89-.07 1.65-.23 2.29-.46-.19-.74-.38-1.5-.5-1.99Z"/><path fill="#F1A11E" d="m14.205 4.218.866-.5.51.883.127-.032.58 1.03c.2.33.15.76-.1 1.05l-.55.63-1.36-2.36.29-.072-.363-.629ZM11.026 6.056l.866-.5.371.644c.07-.074.138-.147.205-.221l1.35 2.35-.82.16a.944.944 0 0 1-.97-.44l-.59-1.03a7.94 7.94 0 0 0 .093-.087l-.505-.876Z"/><path fill="#FDBB11" d="M16.158 4.959a.7.7 0 1 1-1.4 0 .7.7 0 0 1 1.4 0ZM12.608 7.009a.7.7 0 1 1-1.4 0 .7.7 0 0 1 1.4 0Z"/><path fill="#FFC83D" d="M12 4.06c-.78.43-1.05 1.42-.59 2.16l.72 1.17c.62 1 1.79 1.24 2.74.7.96-.54 1.36-1.66.83-2.71l-.62-1.22c-.39-.78-1.37-1.06-2.15-.63l-.93.53Z"/><path fill="#8B62BF" d="M13.938 2.409c-.56-.2-1.15-.07-1.67.23l-.38.23-.38.22c-.52.3-.93.75-1.04 1.33-.08.45.1 1.08.56 1.64l.02-.02c.01-.02.01-.04.02-.05.24-.46.6-.87 1-1.2.21-.17.43-.33.66-.47.23-.12.47-.23.72-.33.49-.18 1.02-.29 1.54-.26.02 0 .04 0 .06.01l.03-.01c-.25-.69-.71-1.16-1.14-1.32Z"/><path fill="#B8A1E6" d="M11.438 5.189c-.18.26-.31.54-.41.87l.26.1c.19.07.41 0 .52-.18.19-.31.56-.8 1.21-1.18.65-.38 1.26-.45 1.62-.46.21 0 .38-.16.41-.36l.04-.27c-.35-.07-.66-.1-.97-.07-1.08.1-2.06.66-2.68 1.55Z"/><path fill="#990839" d="M14.338 7.109c-.2.11-.41.17-.61.18-.07 0-.09.1-.03.13.24.12.55.12.8-.03.26-.15.41-.41.42-.69 0-.07-.09-.1-.12-.04-.11.18-.27.33-.46.45Z"/><path fill="#ED9200" d="m13.518 5.949.17.73c.03.15.2.22.34.15l.27-.17c.14-.08.16-.26.04-.36l-.55-.51c-.12-.12-.31 0-.27.16Z"/><path fill="#fff" d="M15.008 5.069a.605.605 0 0 0-.73-.1c-.25.14-.35.44-.26.71.02.06.09.08.14.05l.82-.48c.07-.03.08-.13.03-.18ZM12.238 6.669c-.08-.25.03-.54.27-.68.25-.14.57-.09.76.12.04.05.02.12-.03.15l-.83.48c-.06.04-.15 0-.17-.07Z"/><path fill="#7D4533" d="M14.788 5.249a.38.38 0 0 0-.52-.14c-.19.11-.25.34-.14.52.01.03.03.06.06.08l.64-.37a.355.355 0 0 0-.04-.09ZM12.498 6.569c-.1-.18-.04-.42.14-.52a.38.38 0 0 1 .53.14c.005.015.013.03.02.045.008.015.015.03.02.045l-.64.37a.27.27 0 0 1-.07-.08Z"/><path fill="#000" d="M14.348 5.249c-.1.06-.14.2-.08.3.02.03.04.06.07.08l.34-.2c0-.03-.01-.07-.03-.1-.06-.1-.2-.14-.3-.08ZM12.728 6.189c.11-.06.24-.02.3.08.01.03.02.06.02.11l-.33.19a.27.27 0 0 1-.07-.08.223.223 0 0 1 .08-.3Z"/><path fill="#fff" d="M14.348 5.369a.07.07 0 1 1-.14 0 .07.07 0 0 1 .14 0ZM12.718 6.309a.07.07 0 1 1-.14 0 .07.07 0 0 1 .14 0Z"/><path fill="#D37034" d="M14.574 4.437a.112.112 0 0 1-.031.223h-.011a.87.87 0 0 0-.18.008.927.927 0 0 0-.425.18.112.112 0 1 1-.137-.179 1.151 1.151 0 0 1 .761-.234l.016.002h.007Zm-1.919 1.048a.113.113 0 0 1-.073.14c-.232.075-.394.22-.456.426a.112.112 0 0 1-.215-.065c.088-.292.317-.483.603-.574a.112.112 0 0 1 .141.073Z"/></svg>
